lib/brands/icons/amazon-web-services.svg

<svg xmlns="http://www.w3.org/2000/svg" fill="none" aria-hidden="true" viewBox="0 0 48 48"><g id="amazon-web-services-Icon"><g id="Group"><path id="Vector" fill="#252F3E" d="M15.2723 20.7273C15.2723 21.2196 15.3255 21.6187 15.4186 21.9114C15.5251 22.204 15.6581 22.5233 15.8444 22.8692C15.9109 22.9756 15.9375 23.0821 15.9375 23.1752C15.9375 23.3082 15.8577 23.4413 15.6847 23.5743L14.8466 24.1331C14.7269 24.2129 14.6071 24.2528 14.5007 24.2528C14.3677 24.2528 14.2346 24.1863 14.1016 24.0665C13.9153 23.867 13.7557 23.6541 13.6227 23.4413C13.4896 23.2151 13.3566 22.9623 13.2102 22.6564C12.1726 23.8803 10.8688 24.4923 9.29899 24.4923C8.18149 24.4923 7.29015 24.173 6.63827 23.5344C5.9864 22.8958 5.65381 22.0444 5.65381 20.9801C5.65381 19.8493 6.05292 18.9314 6.86443 18.2396C7.67595 17.5478 8.75354 17.2019 10.1238 17.2019C10.5761 17.2019 11.0418 17.2418 11.534 17.3083C12.0262 17.3748 12.5318 17.4813 13.0639 17.601V16.6298C13.0639 15.6188 12.851 14.9137 12.4386 14.5013C12.0129 14.0889 11.2945 13.8893 10.2702 13.8893C9.80453 13.8893 9.3256 13.9425 8.83336 14.0622C8.34113 14.182 7.8622 14.3283 7.39658 14.5146C7.18372 14.6077 7.02408 14.6609 6.93095 14.6875C6.83783 14.7141 6.77131 14.7274 6.71809 14.7274C6.53184 14.7274 6.43872 14.5944 6.43872 14.315V13.6631C6.43872 13.4503 6.46533 13.2906 6.53184 13.1975C6.59836 13.1044 6.71809 13.0113 6.90434 12.9181C7.36997 12.6787 7.92872 12.4791 8.5806 12.3195C9.23247 12.1465 9.92426 12.0667 10.656 12.0667C12.2391 12.0667 13.3965 12.4259 14.1415 13.1443C14.8732 13.8627 15.2457 14.9536 15.2457 16.417V20.7273H15.2723ZM9.87104 22.7495C10.3101 22.7495 10.7624 22.6697 11.2413 22.51C11.7202 22.3504 12.146 22.0577 12.5052 21.6586C12.718 21.4058 12.8777 21.1264 12.9575 20.8072C13.0373 20.4879 13.0905 20.1021 13.0905 19.6497V19.091C12.7047 18.9979 12.2923 18.9181 11.8666 18.8648C11.4409 18.8116 11.0285 18.785 10.616 18.785C9.7247 18.785 9.07283 18.958 8.63381 19.3172C8.19479 19.6764 7.98194 20.1819 7.98194 20.8471C7.98194 21.4723 8.14158 21.938 8.47417 22.2572C8.79345 22.5898 9.25908 22.7495 9.87104 22.7495ZM20.5538 24.1863C20.3144 24.1863 20.1547 24.1464 20.0483 24.0532C19.9419 23.9734 19.8487 23.7872 19.7689 23.5344L16.6426 13.2507C16.5627 12.9847 16.5228 12.8117 16.5228 12.7186C16.5228 12.5057 16.6293 12.386 16.8421 12.386H18.1459C18.3986 12.386 18.5716 12.4259 18.6647 12.519C18.7711 12.5989 18.851 12.7851 18.9308 13.0379L21.1658 21.8448L23.2411 13.0379C23.3077 12.7718 23.3875 12.5989 23.4939 12.519C23.6003 12.4392 23.7866 12.386 24.0261 12.386H25.0903C25.3431 12.386 25.5161 12.4259 25.6225 12.519C25.7289 12.5989 25.822 12.7851 25.8753 13.0379L27.9772 21.9513L30.2787 13.0379C30.3586 12.7718 30.4517 12.5989 30.5448 12.519C30.6512 12.4392 30.8242 12.386 31.0636 12.386H32.3009C32.5137 12.386 32.6335 12.4924 32.6335 12.7186C32.6335 12.7851 32.6202 12.8516 32.6069 12.9314C32.5936 13.0113 32.567 13.1177 32.5137 13.264L29.3076 23.5477C29.2278 23.8138 29.1346 23.9867 29.0282 24.0665C28.9218 24.1464 28.7488 24.1996 28.5227 24.1996H27.3786C27.1258 24.1996 26.9528 24.1597 26.8464 24.0665C26.74 23.9734 26.6469 23.8005 26.5936 23.5344L24.5316 14.9536L22.4828 23.5211C22.4163 23.7872 22.3365 23.9601 22.2301 24.0532C22.1236 24.1464 21.9374 24.1863 21.6979 24.1863H20.5538ZM37.6489 24.5455C36.9571 24.5455 36.2653 24.4656 35.6002 24.306C34.935 24.1464 34.4161 23.9734 34.0703 23.7739C33.8574 23.6541 33.7111 23.5211 33.6578 23.4014C33.6046 23.2816 33.578 23.1486 33.578 23.0289V22.3504C33.578 22.071 33.6845 21.938 33.884 21.938C33.9638 21.938 34.0436 21.9513 34.1235 21.9779C34.2033 22.0045 34.323 22.0577 34.4561 22.1109C34.9084 22.3105 35.4006 22.4701 35.9195 22.5765C36.4516 22.683 36.9704 22.7362 37.5026 22.7362C38.3407 22.7362 38.9926 22.5898 39.4449 22.2972C39.8972 22.0045 40.1367 21.5788 40.1367 21.0333C40.1367 20.6608 40.017 20.3548 39.7775 20.1021C39.538 19.8493 39.0857 19.6231 38.4338 19.4103L36.5048 18.8116C35.5336 18.5056 34.8153 18.0533 34.3762 17.4547C33.9372 16.8693 33.7111 16.2174 33.7111 15.5256C33.7111 14.9669 33.8308 14.4747 34.0703 14.0489C34.3097 13.6232 34.629 13.2507 35.0281 12.958C35.4272 12.6521 35.8795 12.4259 36.4117 12.2663C36.9438 12.1066 37.5026 12.0401 38.0879 12.0401C38.3806 12.0401 38.6866 12.0534 38.9793 12.0933C39.2853 12.1332 39.5646 12.1864 39.844 12.2397C40.1101 12.3062 40.3628 12.3727 40.6023 12.4525C40.8418 12.5323 41.028 12.6122 41.1611 12.692C41.3473 12.7984 41.4804 12.9048 41.5602 13.0246C41.64 13.131 41.6799 13.2773 41.6799 13.4636V14.0889C41.6799 14.3682 41.5735 14.5146 41.3739 14.5146C41.2675 14.5146 41.0945 14.4614 40.8684 14.3549C40.1101 14.009 39.2587 13.8361 38.3141 13.8361C37.5558 13.8361 36.9571 13.9558 36.5447 14.2086C36.1323 14.4614 35.9195 14.8472 35.9195 15.3926C35.9195 15.7651 36.0525 16.0844 36.3186 16.3372C36.5846 16.5899 37.0769 16.8427 37.782 17.0689L39.6711 17.6675C40.6289 17.9735 41.3207 18.3992 41.7331 18.9447C42.1455 19.4901 42.3451 20.1154 42.3451 20.8072C42.3451 21.3792 42.2254 21.8981 41.9992 22.3504C41.7597 22.8027 41.4404 23.2018 41.028 23.5211C40.6156 23.8537 40.1234 24.0931 39.5513 24.2661C38.9527 24.4523 38.3274 24.5455 37.6489 24.5455Z"/><path id="Vector_2" fill="#FF9900" d="M40.1634 31.011C35.7865 34.2438 29.4274 35.9599 23.9596 35.9599C16.2968 35.9599 9.39221 33.1263 4.17721 28.4168C3.76479 28.0443 4.1373 27.5388 4.62953 27.8315C10.2702 31.1041 17.228 33.0864 24.4253 33.0864C29.2811 33.0864 34.6158 32.0753 39.5248 29.9999C40.2565 29.6674 40.8818 30.4789 40.1634 31.011ZM41.986 28.9357C41.4272 28.2173 38.2876 28.5898 36.8641 28.7627C36.4384 28.8159 36.3719 28.4434 36.7577 28.164C39.2587 26.408 43.3696 26.9135 43.8485 27.4989C44.3274 28.0975 43.7154 32.2083 41.374 34.1773C41.0148 34.4832 40.6689 34.3236 40.8286 33.9245C41.3607 32.6074 42.5447 29.6407 41.986 28.9357Z"/></g></g></svg>

<svg xmlns="http://www.w3.org/2000/svg" fill="none" aria-hidden="true" viewBox="0 0 48 48"><path fill="#252F3E" d="M15.272 20.727c0 .493.053.892.147 1.184.106.293.24.612.425.958a.579.579 0 0 1 .094.306c0 .133-.08.266-.253.4l-.838.558a.64.64 0 0 1-.346.12c-.133 0-.266-.067-.4-.186a4.11 4.11 0 0 1-.478-.626 10.318 10.318 0 0 1-.413-.785c-1.037 1.224-2.341 1.836-3.911 1.836-1.118 0-2.009-.319-2.66-.958-.653-.638-.985-1.49-.985-2.554 0-1.13.399-2.049 1.21-2.74.812-.692 1.89-1.038 3.26-1.038.452 0 .918.04 1.41.106.492.067.998.173 1.53.293v-.971c0-1.011-.213-1.716-.625-2.129-.426-.412-1.145-.612-2.169-.612-.465 0-.944.054-1.437.173-.492.12-.97.266-1.436.453a3.818 3.818 0 0 1-.466.172.816.816 0 0 1-.213.04c-.186 0-.28-.133-.28-.412v-.652c0-.213.027-.372.094-.466.066-.093.186-.186.372-.279a7.66 7.66 0 0 1 1.677-.598 8.063 8.063 0 0 1 2.075-.253c1.583 0 2.74.359 3.486 1.077.731.719 1.104 1.81 1.104 3.273v4.31h.026ZM9.871 22.75c.44 0 .891-.08 1.37-.24a2.96 2.96 0 0 0 1.264-.851c.213-.253.373-.533.452-.852.08-.32.133-.705.133-1.157v-.559a11.136 11.136 0 0 0-1.223-.226c-.426-.053-.839-.08-1.251-.08-.891 0-1.543.173-1.982.532-.44.36-.652.865-.652 1.53 0 .625.16 1.091.492 1.41.32.333.785.492 1.397.492Zm10.683 1.436c-.24 0-.4-.04-.506-.133-.106-.08-.2-.266-.28-.519l-3.125-10.283c-.08-.266-.12-.44-.12-.532 0-.213.106-.333.32-.333h1.303c.253 0 .426.04.519.133.106.08.186.266.266.519l2.235 8.807 2.075-8.807c.067-.266.146-.44.253-.519.106-.08.293-.133.532-.133h1.064c.253 0 .426.04.532.133.107.08.2.266.253.519l2.102 8.913 2.302-8.913c.08-.266.173-.44.266-.519.106-.08.28-.133.519-.133H32.3c.213 0 .332.106.332.333 0 .066-.013.133-.026.212-.013.08-.04.187-.093.333l-3.206 10.284c-.08.266-.173.439-.28.519-.106.08-.28.133-.505.133h-1.144c-.253 0-.426-.04-.533-.133-.106-.094-.2-.267-.252-.533l-2.062-8.58-2.05 8.567c-.066.266-.145.44-.252.532-.106.093-.293.133-.532.133h-1.144Zm17.095.36c-.692 0-1.384-.08-2.049-.24-.665-.16-1.184-.333-1.53-.532-.213-.12-.359-.253-.412-.373a.94.94 0 0 1-.08-.372v-.679c0-.279.106-.412.306-.412.08 0 .16.013.24.04.08.026.199.08.332.133.452.2.945.36 1.463.465.533.107 1.051.16 1.584.16.838 0 1.49-.146 1.942-.439.452-.293.692-.718.692-1.264 0-.372-.12-.678-.36-.93-.239-.254-.691-.48-1.343-.693l-1.93-.598c-.97-.306-1.689-.759-2.128-1.357-.439-.586-.665-1.238-.665-1.93 0-.558.12-1.05.36-1.476a3.42 3.42 0 0 1 .957-1.091c.4-.306.852-.532 1.384-.692a5.796 5.796 0 0 1 1.676-.226c.293 0 .599.013.891.053a14 14 0 0 1 .865.147c.266.066.519.133.758.213a3 3 0 0 1 .56.239c.185.106.318.213.398.333.08.106.12.252.12.439v.625c0 .28-.106.426-.306.426-.107 0-.28-.054-.506-.16-.758-.346-1.61-.519-2.554-.519-.758 0-1.357.12-1.77.373-.412.252-.624.638-.624 1.184 0 .372.133.691.399.944s.758.506 1.463.732l1.89.599c.957.306 1.649.731 2.061 1.277a3.01 3.01 0 0 1 .612 1.862 3.42 3.42 0 0 1-.346 1.543 3.58 3.58 0 0 1-.971 1.171c-.412.333-.905.572-1.477.745a6.327 6.327 0 0 1-1.902.28Z"/><path fill="#F90" d="M40.163 31.011c-4.377 3.233-10.736 4.949-16.203 4.949-7.663 0-14.568-2.834-19.783-7.543-.412-.373-.04-.878.453-.586 5.64 3.273 12.598 5.255 19.795 5.255 4.856 0 10.19-1.01 15.1-3.086.732-.333 1.357.479.638 1.011Zm1.823-2.075c-.559-.719-3.698-.346-5.122-.173-.426.053-.492-.32-.106-.599 2.5-1.756 6.612-1.25 7.09-.665.48.599-.133 4.71-2.474 6.678-.36.306-.705.147-.545-.252.532-1.318 1.716-4.284 1.157-4.99Z"/></svg>
